lib/healthicons/icons/solid/typography/L.svg

<svg fill="none" height="48" viewBox="0 0 48 48" width="48" xmlns="http://www.w3.org/2000/svg"><path clip-rule="evenodd" d="m18 10c1.1046 0 2 .8954 2 2v22h10c1.1046 0 2 .8954 2 2s-.8954 2-2 2h-12c-1.1046 0-2-.8954-2-2v-24c0-1.1046.8954-2 2-2z" fill="#333" fill-rule="evenodd"/></svg>

<svg width="48" height="48" viewBox="0 0 48 48" fill="none" xmlns="http://www.w3.org/2000/svg">
<path fill-rule="evenodd" clip-rule="evenodd" d="M18 10C19.1046 10 20 10.8954 20 12L20 34H30C31.1046 34 32 34.8954 32 36C32 37.1046 31.1046 38 30 38H18C16.8954 38 16 37.1046 16 36L16 12C16 10.8954 16.8954 10 18 10Z" fill="#333333"/>
</svg>
